X:595
T:Powell's Fancy
T:Hoffed Ap Hywel
C:Thompson, c.1765.
S:Colin Hume's website,  colinhume.com  - chords can also be printed below the stave.
Q:3/8=120
M:9/8
L:1/8
K:F
|: "F"f2d "/"cAF "/"cAF | "F"f2d "/"cAF "C7"B2G | "F"f2d "/"cAF "/"cAF | "Gm"GAB "/"AGF "C7"EDC :|
|: "F"f2a "/"afa "/"afa | "F"f2a "/"afa "C7"gec | "F"f2a "/"afa "/"afa | "Gm"gab "/"agf "C7"edc :|

